X:1
T:Chandler's -- Hornpipe
R:hornpipe
B:Cole's 1000 Fiddle Tunes
M:C|
L:1/8
K:C
(uGF)|EGce g2(GE)|FAcf a2(ba)|gecB cege|f2d2d2 (GF)|
EGce g2(GE)|FAcf a2(ba)|gecB cd"4"ec|d2c2c2:|
|:(ufg)|aAcf a2 (ba)|gGce g2(ag)|fGBd bafd|cBcd "4"e2(fg)|
aAcf a2(ba)|gGce g2(ag)|^fgba g=fed|e2c2c2:|
